X:1
T:Studio City, 98.98 D
T:Studio City, 98.98 D
T:Daniel Brink Towner, 1899
T:Public Domain Courtesy of the Cyber Hymnal™
C:Daniel Brink Towner, 1899
Z:Public Domain
Z:Courtesy of the Cyber Hymnal™
%%score ( 1 2 ) ( 3 4 )
L:1/8
Q:1/4=89
M:6/8
K:E
V:1 treble 
V:2 treble 
V:3 bass 
V:4 bass 
V:1
 [GB] | [GB][EG][B,E] [B,E][B,D][B,E] | [EG] [DF]4 [EG] | [FA][EG][FA] [Ac][GB]>[FA] | %4
 [EG]3- [EG]2 [GB] | [GB][EG][B,E] [B,E][B,D][B,E] | [EG] [DF]4 [DF] | [EF][EF][EF] [EF][EG][E^A] | %8
 [DB]3- [DB]2 [AB] | [GB][^^F^A][GB] [=Ac][GB]>[EG] | [GB] [FA]4 [FA] | %11
 [FA][^EG][FA] [Ad][Ac]>[AB] | [GB]3- [GB]2 [GB] | [Ge][EB][EG] [EA][EB][Ec] | [EB]3 [EG]2 E | %15
 [EF][^EG][FA] !fermata![=EG]E[B,F] | [B,E]3- [B,E]2 |] %17
V:2
 x | x6 | x6 | x6 | x6 | x6 | x6 | x6 | x6 | x6 | x6 | x6 | x6 | x6 | x5 E | x4 E x | x5 |] %17
V:3
 E, | E,E,[E,G,] [E,G,][F,A,][E,G,] | [B,,B,] [B,,B,]4 [B,,B,] | %3
 [B,,B,][B,,B,][B,,B,] [B,,D,][B,,E,]>[B,,B,] | [E,B,]3- [E,B,]2 E, | %5
 E,E,[E,G,] [E,G,][F,A,][E,G,] | [B,,B,] [B,,B,]4 [B,,B,] | [F,^A,][F,A,][F,A,] [F,A,][F,A,]F, | %8
 [B,,F,]3- [B,,F,]2 [B,,F,] | E,E,E, E,E,>E, | [B,,D,] [B,,D,]4 [B,,D,] | %11
 [B,,F,][B,,B,][B,,F,] [B,,F,][B,,F,]>[C,E,] | E,3- E,2 E, | E,[E,G,][=D,B,] [C,A,][B,,G,][A,,A,] | %14
 [E,G,]3 [E,B,]2 [G,B,] | [A,C][G,C][F,C] !fermata!B,[B,,G,][B,,A,] | [E,G,]3- [E,G,]2 |] %17
V:4
 E, | E,E, x4 | x6 | x6 | x5 E, | E,E, x4 | x6 | x5 F, | x6 | E,E,E, E,E,>E, | x6 | x6 | %12
 E,3- E,2 E, | E, x5 | x6 | x3 B, x2 | x5 |] %17

